docs/assets/footer/brands/graygrids.svg

<svg width="172" height="36" viewBox="0 0 172 36" fill="none" xmlns="http://www.w3.org/2000/svg">
<g clip-path="url(#clip0_707_243)">
<path d="M36 18C36 8.05887 27.9411 0 18 0C8.05887 0 0 8.05887 0 18C0 27.9411 8.05887 36 18 36C27.9411 36 36 27.9411 36 18Z" fill="url(#paint0_linear_707_243)"/>
<path d="M36 18C36 8.05887 27.9411 0 18 0C8.05887 0 0 8.05887 0 18C0 27.9411 8.05887 36 18 36C27.9411 36 36 27.9411 36 18Z" fill="url(#paint1_linear_707_243)" fill-opacity="0.56"/>
<path d="M18.2865 6.75C21.1369 6.75 23.8277 7.80311 25.91 9.72306C26.0254 9.82953 26.0266 10.0103 25.9156 10.1213L21.5081 14.5288C21.4014 14.6356 21.2299 14.6382 21.1131 14.5425C20.3171 13.8908 19.3294 13.5369 18.2883 13.5369C15.8238 13.5352 13.8199 15.5391 13.8199 18H7.03125C7.03125 11.7967 12.0814 6.75 18.2865 6.75Z" fill="white"/>
<path d="M13.8199 18C13.8199 20.3097 15.5847 22.2161 17.8375 22.4424C17.9877 22.4575 18.1072 22.5806 18.1072 22.7316V28.9643C18.1072 29.1213 17.9778 29.2483 17.8208 29.2419C11.8294 28.9964 7.03125 24.0475 7.03125 18H13.8199Z" fill="white"/>
<path opacity="0.56" d="M24.9749 18.8931H22.3206C22.1652 18.8931 22.0393 19.0191 22.0393 19.1744V21.8269C22.0393 21.9823 22.1652 22.1082 22.3206 22.1082H24.9749C25.1302 22.1082 25.2561 21.9823 25.2561 21.8269V19.1744C25.2561 19.0191 25.1302 18.8931 24.9749 18.8931Z" fill="white"/>
<path opacity="0.4" d="M28.5465 18.8931H25.8922C25.7369 18.8931 25.611 19.0191 25.611 19.1744V21.8269C25.611 21.9823 25.7369 22.1082 25.8922 22.1082H28.5465C28.7018 22.1082 28.8278 21.9823 28.8278 21.8269V19.1744C28.8278 19.0191 28.7018 18.8931 28.5465 18.8931Z" fill="white"/>
<path opacity="0.72" d="M24.9749 22.4648H22.3206C22.1652 22.4648 22.0393 22.5907 22.0393 22.746V25.3986C22.0393 25.5539 22.1652 25.6798 22.3206 25.6798H24.9749C25.1302 25.6798 25.2561 25.5539 25.2561 25.3986V22.746C25.2561 22.5907 25.1302 22.4648 24.9749 22.4648Z" fill="white"/>
<path opacity="0.88" d="M21.4017 22.4648H18.7474C18.5921 22.4648 18.4662 22.5907 18.4662 22.746V25.3986C18.4662 25.5539 18.5921 25.6798 18.7474 25.6798H21.4017C21.5571 25.6798 21.683 25.5539 21.683 25.3986V22.746C21.683 22.5907 21.5571 22.4648 21.4017 22.4648Z" fill="white"/>
<path opacity="0.56" d="M28.5465 22.4648H25.8922C25.7369 22.4648 25.611 22.5907 25.611 22.746V25.3986C25.611 25.5539 25.7369 25.6798 25.8922 25.6798H28.5465C28.7018 25.6798 28.8278 25.5539 28.8278 25.3986V22.746C28.8278 22.5907 28.7018 22.4648 28.5465 22.4648Z" fill="white"/>
<path opacity="0.88" d="M24.9749 26.0347H22.3206C22.1652 26.0347 22.0393 26.1606 22.0393 26.3159V28.9685C22.0393 29.1238 22.1652 29.2497 22.3206 29.2497H24.9749C25.1302 29.2497 25.2561 29.1238 25.2561 28.9685V26.3159C25.2561 26.1606 25.1302 26.0347 24.9749 26.0347Z" fill="white"/>
<path opacity="0.96" d="M21.4017 26.0347H18.7474C18.5921 26.0347 18.4662 26.1606 18.4662 26.3159V28.9685C18.4662 29.1238 18.5921 29.2497 18.7474 29.2497H21.4017C21.5571 29.2497 21.683 29.1238 21.683 28.9685V26.3159C21.683 26.1606 21.5571 26.0347 21.4017 26.0347Z" fill="white"/>
<path opacity="0.72" d="M28.5465 26.0347H25.8922C25.7369 26.0347 25.611 26.1606 25.611 26.3159V28.9685C25.611 29.1238 25.7369 29.2497 25.8922 29.2497H28.5465C28.7018 29.2497 28.8278 29.1238 28.8278 28.9685V26.3159C28.8278 26.1606 28.7018 26.0347 28.5465 26.0347Z" fill="white"/>
<path d="M56.9419 10.125H59.7769V26.379C59.7769 27.4185 59.535 28.3845 59.0512 29.277C58.5787 30.18 57.9375 30.9622 57.1275 31.6238C56.3175 32.2957 55.395 32.8155 54.36 33.183C53.325 33.561 52.245 33.75 51.12 33.75C49.95 33.75 48.8194 33.5033 47.7281 33.0098C46.6369 32.5268 45.6806 31.8757 44.8594 31.0567C44.0494 30.2482 43.4644 29.34 43.1044 28.332L45.7031 27.2295C45.9169 27.954 46.2994 28.605 46.8506 29.1825C47.4131 29.7705 48.0656 30.2325 48.8081 30.5685C49.5619 30.915 50.3325 31.0882 51.12 31.0882C51.8625 31.0882 52.5769 30.9675 53.2631 30.726C53.9606 30.4845 54.585 30.1485 55.1362 29.718C55.6987 29.298 56.1375 28.7993 56.4525 28.2218C56.7787 27.6548 56.9419 27.0405 56.9419 26.379V23.2447C56.3681 24.1477 55.6087 24.8827 54.6637 25.4497C53.73 26.0063 52.6387 26.2845 51.39 26.2845C50.1975 26.2845 49.0781 26.0693 48.0319 25.6388C46.9856 25.2083 46.0687 24.615 45.2812 23.859C44.4937 23.0925 43.875 22.2105 43.425 21.213C42.975 20.2155 42.75 19.1445 42.75 18C42.75 16.8555 42.975 15.7845 43.425 14.787C43.875 13.779 44.4937 12.897 45.2812 12.141C46.0687 11.3745 46.9856 10.776 48.0319 10.3455C49.0781 9.91496 50.1975 9.69971 51.39 9.69971C52.6387 9.69971 53.73 9.97796 54.6637 10.5345C55.6087 11.091 56.3681 11.826 56.9419 12.7395V10.125ZM51.4069 23.7173C52.4981 23.7173 53.4431 23.4548 54.2419 22.9298C55.0519 22.4048 55.6762 21.7065 56.115 20.835C56.5537 19.9635 56.7731 19.0185 56.7731 18C56.7731 16.95 56.5481 15.9945 56.0981 15.1335C55.6594 14.262 55.035 13.569 54.225 13.0545C53.4262 12.5295 52.4869 12.267 51.4069 12.267C50.3494 12.267 49.3819 12.5243 48.5044 13.0388C47.6269 13.5533 46.9294 14.2463 46.4119 15.1178C45.9056 15.9788 45.6525 16.9395 45.6525 18C45.6525 19.0605 45.9112 20.0265 46.4288 20.898C46.9575 21.759 47.655 22.4468 48.5212 22.9613C49.3987 23.4653 50.3606 23.7173 51.4069 23.7173Z" fill="white"/>
<path d="M62.4845 25.8751V10.1251H65.3195V12.0939C65.9158 11.3589 66.6695 10.7761 67.5808 10.3456C68.492 9.90458 69.482 9.68408 70.5508 9.68408C71.2033 9.68408 71.8333 9.76283 72.4408 9.92033L71.2933 12.5664C70.832 12.4299 70.382 12.3616 69.9433 12.3616C69.0995 12.3616 68.3233 12.5559 67.6145 12.9444C66.917 13.3224 66.3601 13.8369 65.9439 14.4879C65.5276 15.1389 65.3195 15.8634 65.3195 16.6614V25.8751H62.4845Z" fill="white"/>
<path d="M85.875 10.1251H88.71V25.8751H85.875L85.757 23.2134C85.2282 24.1269 84.4969 24.8671 83.5631 25.4341C82.6406 26.0011 81.5381 26.2846 80.2556 26.2846C79.0181 26.2846 77.8594 26.0694 76.7794 25.6389C75.6994 25.1979 74.7431 24.5941 73.9106 23.8276C73.0894 23.0506 72.4481 22.1581 71.9869 21.1501C71.5256 20.1421 71.295 19.0554 71.295 17.8899C71.295 16.7664 71.52 15.7059 71.97 14.7084C72.42 13.7109 73.0444 12.8394 73.8431 12.0939C74.6531 11.3379 75.5869 10.7499 76.6444 10.3299C77.7019 9.89933 78.8381 9.68408 80.0531 9.68408C81.3806 9.68408 82.545 9.97808 83.5463 10.5661C84.5475 11.1436 85.3575 11.8944 85.9763 12.8184L85.875 10.1251ZM80.205 23.7174C81.3188 23.7174 82.2806 23.4654 83.0906 22.9614C83.9119 22.4469 84.5419 21.7539 84.9806 20.8824C85.4306 20.0109 85.6556 19.0501 85.6556 18.0001C85.6556 16.9291 85.4306 15.9631 84.9806 15.1021C84.5306 14.2306 83.895 13.5429 83.0738 13.0389C82.2638 12.5244 81.3075 12.2671 80.205 12.2671C79.0913 12.2671 78.0788 12.5244 77.1675 13.0389C76.2563 13.5534 75.5306 14.2464 74.9906 15.1179C74.4619 15.9789 74.1975 16.9396 74.1975 18.0001C74.1975 19.0606 74.4731 20.0266 75.0244 20.8981C75.5756 21.7591 76.3069 22.4469 77.2181 22.9614C78.1294 23.4654 79.125 23.7174 80.205 23.7174Z" fill="white"/>
<path d="M101.765 10.125H104.769L95.5383 33.75H92.5345L95.5889 25.875L89.5308 10.125H92.6358L97.0064 22.2367L101.765 10.125Z" fill="white"/>
<path d="M119.108 10.125H121.943V26.379C121.943 27.4185 121.701 28.3845 121.217 29.277C120.745 30.18 120.103 30.9622 119.293 31.6238C118.483 32.2957 117.561 32.8155 116.526 33.183C115.491 33.561 114.411 33.75 113.286 33.75C112.116 33.75 110.985 33.5033 109.894 33.0098C108.803 32.5268 107.847 31.8757 107.025 31.0567C106.215 30.2482 105.63 29.34 105.27 28.332L107.869 27.2295C108.083 27.954 108.465 28.605 109.017 29.1825C109.579 29.7705 110.232 30.2325 110.974 30.5685C111.728 30.915 112.498 31.0882 113.286 31.0882C114.028 31.0882 114.743 30.9675 115.429 30.726C116.127 30.4845 116.751 30.1485 117.302 29.718C117.865 29.298 118.303 28.7993 118.618 28.2218C118.945 27.6548 119.108 27.0405 119.108 26.379V23.2447C118.534 24.1477 117.775 24.8827 116.83 25.4497C115.896 26.0063 114.805 26.2845 113.556 26.2845C112.363 26.2845 111.244 26.0693 110.198 25.6388C109.152 25.2083 108.235 24.615 107.447 23.859C106.66 23.0925 106.041 22.2105 105.591 21.213C105.141 20.2155 104.916 19.1445 104.916 18C104.916 16.8555 105.141 15.7845 105.591 14.787C106.041 13.779 106.66 12.897 107.447 12.141C108.235 11.3745 109.152 10.776 110.198 10.3455C111.244 9.91496 112.363 9.69971 113.556 9.69971C114.805 9.69971 115.896 9.97796 116.83 10.5345C117.775 11.091 118.534 11.826 119.108 12.7395V10.125ZM113.573 23.7173C114.664 23.7173 115.609 23.4548 116.408 22.9298C117.218 22.4048 117.842 21.7065 118.281 20.835C118.72 19.9635 118.939 19.0185 118.939 18C118.939 16.95 118.714 15.9945 118.264 15.1335C117.825 14.262 117.201 13.569 116.391 13.0545C115.592 12.5295 114.653 12.267 113.573 12.267C112.515 12.267 111.548 12.5243 110.67 13.0388C109.793 13.5533 109.095 14.2463 108.578 15.1178C108.072 15.9788 107.818 16.9395 107.818 18C107.818 19.0605 108.077 20.0265 108.595 20.898C109.123 21.759 109.821 22.4468 110.687 22.9613C111.565 23.4653 112.527 23.7173 113.573 23.7173Z" fill="white"/>
<path d="M124.65 25.8751V10.1251H127.485V12.0939C128.082 11.3589 128.835 10.7761 129.747 10.3456C130.658 9.90458 131.648 9.68408 132.717 9.68408C133.369 9.68408 133.999 9.76283 134.607 9.92033L133.459 12.5664C132.998 12.4299 132.548 12.3616 132.109 12.3616C131.265 12.3616 130.489 12.5559 129.78 12.9444C129.083 13.3224 128.526 13.8369 128.11 14.4879C127.694 15.1389 127.485 15.8634 127.485 16.6614V25.8751H124.65Z" fill="white"/>
<path d="M135.33 10.1252H138.165V25.8752H135.33V10.1252ZM136.782 7.55791C136.332 7.55791 135.955 7.42141 135.651 7.14841C135.347 6.87541 135.195 6.53416 135.195 6.12466C135.195 5.71516 135.347 5.37391 135.651 5.10091C135.955 4.82791 136.326 4.69141 136.765 4.69141C137.204 4.69141 137.575 4.82791 137.879 5.10091C138.182 5.37391 138.334 5.71516 138.334 6.12466C138.334 6.53416 138.182 6.87541 137.879 7.14841C137.586 7.42141 137.22 7.55791 136.782 7.55791Z" fill="white"/>
<path d="M154.223 2.25H157.058V25.875H154.223V23.1975C153.649 24.1215 152.878 24.867 151.911 25.434C150.943 26.001 149.807 26.2845 148.502 26.2845C147.276 26.2845 146.128 26.0693 145.059 25.6388C143.991 25.2083 143.046 24.615 142.224 23.859C141.414 23.0925 140.779 22.2105 140.318 21.213C139.856 20.2155 139.626 19.1445 139.626 18C139.626 16.8555 139.856 15.7845 140.318 14.787C140.779 13.779 141.414 12.897 142.224 12.141C143.046 11.3745 143.991 10.776 145.059 10.3455C146.128 9.915 147.276 9.69975 148.502 9.69975C149.807 9.69975 150.943 9.98325 151.911 10.5503C152.878 11.1173 153.649 11.8628 154.223 12.7868V2.25ZM148.536 23.7173C149.649 23.7173 150.611 23.4653 151.421 22.9613C152.243 22.4468 152.873 21.7538 153.311 20.8823C153.761 20.0108 153.986 19.05 153.986 18C153.986 16.929 153.761 15.963 153.311 15.102C152.861 14.2305 152.226 13.5428 151.404 13.0388C150.594 12.5243 149.638 12.267 148.536 12.267C147.422 12.267 146.409 12.5243 145.498 13.0388C144.598 13.5533 143.878 14.2463 143.338 15.1178C142.798 15.9788 142.528 16.9395 142.528 18C142.528 19.0605 142.804 20.0265 143.355 20.898C143.906 21.759 144.638 22.4468 145.549 22.9613C146.46 23.4653 147.456 23.7173 148.536 23.7173Z" fill="white"/>
<path d="M164.903 26.1741C163.991 26.1426 163.103 25.9852 162.236 25.7016C161.381 25.4077 160.628 25.0139 159.975 24.5204C159.334 24.0164 158.867 23.4389 158.574 22.7879L161.004 21.8114C161.173 22.1684 161.477 22.5044 161.916 22.8194C162.354 23.1344 162.861 23.3864 163.434 23.5754C164.008 23.7644 164.588 23.8589 165.173 23.8589C165.791 23.8589 166.371 23.7697 166.911 23.5912C167.451 23.4127 167.889 23.1502 168.227 22.8037C168.576 22.4467 168.75 22.0214 168.75 21.5279C168.75 21.0029 168.559 20.5934 168.176 20.2994C167.805 19.9949 167.333 19.7586 166.759 19.5906C166.196 19.4122 165.623 19.2441 165.038 19.0867C163.879 18.8136 162.844 18.4882 161.933 18.1102C161.021 17.7217 160.301 17.2334 159.773 16.6454C159.255 16.0469 158.996 15.2857 158.996 14.3617C158.996 13.3852 159.283 12.5399 159.857 11.8259C160.442 11.1119 161.207 10.5607 162.152 10.1722C163.097 9.78361 164.109 9.58936 165.189 9.58936C166.551 9.58936 167.794 9.86235 168.919 10.4084C170.044 10.9544 170.882 11.6947 171.433 12.6292L169.155 13.8734C168.964 13.4954 168.671 13.1647 168.278 12.8812C167.884 12.5872 167.434 12.3562 166.928 12.1882C166.421 12.0202 165.904 11.9309 165.375 11.9204C164.723 11.8994 164.109 11.9782 163.536 12.1567C162.973 12.3352 162.518 12.6082 162.169 12.9756C161.831 13.3327 161.663 13.7789 161.663 14.3144C161.663 14.8394 161.843 15.2384 162.203 15.5114C162.574 15.7844 163.052 16.0049 163.637 16.1729C164.233 16.3304 164.88 16.5142 165.578 16.7242C166.601 17.0287 167.558 17.3804 168.446 17.7794C169.335 18.1784 170.049 18.6772 170.589 19.2757C171.141 19.8742 171.411 20.6144 171.399 21.4964C171.399 22.4624 171.09 23.3077 170.471 24.0322C169.853 24.7462 169.048 25.2921 168.058 25.6701C167.079 26.0482 166.028 26.2161 164.903 26.1741Z" fill="white"/>
</g>
<defs>
<linearGradient id="paint0_linear_707_243" x1="18" y1="0" x2="18" y2="36" gradientUnits="userSpaceOnUse">
<stop stop-color="#3558EA"/>
<stop offset="1" stop-color="#0000FF"/>
</linearGradient>
<linearGradient id="paint1_linear_707_243" x1="22.7893" y1="5.22943" x2="6.93291" y2="52.4749" gradientUnits="userSpaceOnUse">
<stop offset="0.215628" stop-color="#1E1983" stop-opacity="0"/>
<stop offset="0.447191" stop-color="#1E1983" stop-opacity="0.19"/>
<stop offset="0.619792" stop-color="#1E1983"/>
</linearGradient>
<clipPath id="clip0_707_243">
<rect width="172" height="36" fill="white"/>
</clipPath>
</defs>
</svg>

<svg xmlns="http://www.w3.org/2000/svg" width="172" height="36" fill="none"><g clip-path="url(#a)"><path fill="url(#b)" d="M36 18c0-9.941-8.059-18-18-18S0 8.059 0 18s8.059 18 18 18 18-8.059 18-18"/><path fill="url(#c)" fill-opacity=".56" d="M36 18c0-9.941-8.059-18-18-18S0 8.059 0 18s8.059 18 18 18 18-8.059 18-18"/><path fill="#fff" d="M18.287 6.75c2.85 0 5.54 1.053 7.623 2.973a.276.276 0 0 1 .006.398l-4.408 4.408a.295.295 0 0 1-.395.014A4.47 4.47 0 0 0 13.82 18H7.03c0-6.203 5.05-11.25 11.256-11.25M13.82 18a4.473 4.473 0 0 0 4.017 4.442c.15.015.27.139.27.29v6.232c0 .157-.13.284-.286.278C11.829 28.996 7.03 24.047 7.03 18z"/><path fill="#fff" d="M24.975 18.893H22.32a.28.28 0 0 0-.282.281v2.653c0 .155.126.281.282.281h2.654a.28.28 0 0 0 .281-.281v-2.653a.28.28 0 0 0-.281-.28" opacity=".56"/><path fill="#fff" d="M28.547 18.893h-2.655a.28.28 0 0 0-.281.281v2.653c0 .155.126.281.281.281h2.655a.28.28 0 0 0 .28-.281v-2.653a.28.28 0 0 0-.28-.28" opacity=".4"/><path fill="#fff" d="M24.975 22.465H22.32a.28.28 0 0 0-.282.281v2.653c0 .155.126.28.282.28h2.654a.28.28 0 0 0 .281-.28v-2.653a.28.28 0 0 0-.281-.281" opacity=".72"/><path fill="#fff" d="M21.402 22.465h-2.655a.28.28 0 0 0-.28.281v2.653c0 .155.125.28.28.28h2.655a.28.28 0 0 0 .281-.28v-2.653a.28.28 0 0 0-.281-.281" opacity=".88"/><path fill="#fff" d="M28.547 22.465h-2.655a.28.28 0 0 0-.281.281v2.653c0 .155.126.28.281.28h2.655a.28.28 0 0 0 .28-.28v-2.653a.28.28 0 0 0-.28-.281" opacity=".56"/><path fill="#fff" d="M24.975 26.035H22.32a.28.28 0 0 0-.282.28v2.653c0 .156.126.282.282.282h2.654a.28.28 0 0 0 .281-.282v-2.652a.28.28 0 0 0-.281-.281" opacity=".88"/><path fill="#fff" d="M21.402 26.035h-2.655a.28.28 0 0 0-.28.28v2.653a.28.28 0 0 0 .28.282h2.655a.28.28 0 0 0 .281-.282v-2.652a.28.28 0 0 0-.281-.281" opacity=".96"/><path fill="#fff" d="M28.547 26.035h-2.655a.28.28 0 0 0-.281.28v2.653c0 .156.126.282.281.282h2.655a.28.28 0 0 0 .28-.282v-2.652a.28.28 0 0 0-.28-.281" opacity=".72"/><path fill="#fff" d="M56.942 10.125h2.835v16.254q0 1.56-.726 2.898a7.5 7.5 0 0 1-1.924 2.347 9 9 0 0 1-2.767 1.559 9.4 9.4 0 0 1-3.24.567q-1.755 0-3.392-.74a9.4 9.4 0 0 1-2.869-1.953q-1.215-1.213-1.755-2.725l2.6-1.102a4.75 4.75 0 0 0 1.147 1.953 6.3 6.3 0 0 0 1.957 1.386q1.131.52 2.312.52 1.113 0 2.143-.363a6.4 6.4 0 0 0 1.873-1.008 4.6 4.6 0 0 0 1.316-1.496q.49-.85.49-1.843v-3.134a6.8 6.8 0 0 1-2.278 2.205q-1.4.834-3.274.835a8.7 8.7 0 0 1-3.358-.646 8.7 8.7 0 0 1-2.75-1.78 8.6 8.6 0 0 1-1.857-2.646A7.7 7.7 0 0 1 42.75 18q0-1.718.675-3.213a8.4 8.4 0 0 1 1.856-2.646 8.6 8.6 0 0 1 2.75-1.796A8.7 8.7 0 0 1 51.39 9.7q1.873 0 3.274.835a6.6 6.6 0 0 1 2.278 2.204zm-5.535 13.592q1.636 0 2.835-.787a5.3 5.3 0 0 0 1.873-2.095A6.2 6.2 0 0 0 56.773 18q0-1.575-.675-2.867a5.17 5.17 0 0 0-1.873-2.078q-1.198-.788-2.818-.788a5.63 5.63 0 0 0-2.903.772 5.8 5.8 0 0 0-2.092 2.079q-.76 1.29-.76 2.882 0 1.59.777 2.898a6.04 6.04 0 0 0 2.092 2.063q1.317.756 2.886.756m11.078 2.158v-15.75h2.835v1.969a6.36 6.36 0 0 1 2.26-1.748 6.7 6.7 0 0 1 2.97-.662 7.5 7.5 0 0 1 1.89.236l-1.147 2.646a4.8 4.8 0 0 0-1.35-.204q-1.265 0-2.328.582a4.5 4.5 0 0 0-1.671 1.544 3.95 3.95 0 0 0-.624 2.173v9.214zm23.39-15.75h2.835v15.75h-2.835l-.118-2.662a6.2 6.2 0 0 1-2.194 2.221q-1.383.85-3.307.85a9.3 9.3 0 0 1-3.477-.645 9.5 9.5 0 0 1-2.868-1.811 8.6 8.6 0 0 1-1.924-2.678 7.7 7.7 0 0 1-.692-3.26q0-1.686.675-3.182a8.1 8.1 0 0 1 1.873-2.614 8.9 8.9 0 0 1 2.801-1.764 9 9 0 0 1 3.41-.646q1.99 0 3.492.882a7.2 7.2 0 0 1 2.43 2.252zm-5.67 13.592q1.671 0 2.886-.756a5.13 5.13 0 0 0 1.89-2.079q.675-1.307.675-2.882 0-1.606-.675-2.898a5.14 5.14 0 0 0-1.907-2.063q-1.215-.772-2.869-.772-1.67 0-3.037.772a6 6 0 0 0-2.177 2.079q-.794 1.291-.793 2.882 0 1.59.826 2.898a6.15 6.15 0 0 0 2.194 2.063 6.07 6.07 0 0 0 2.987.756m21.56-13.592h3.004l-9.23 23.625h-3.005l3.055-7.875-6.058-15.75h3.105l4.37 12.112zm17.343 0h2.835v16.254q0 1.56-.726 2.898a7.5 7.5 0 0 1-1.924 2.347 9 9 0 0 1-2.767 1.559 9.4 9.4 0 0 1-3.24.567 8.15 8.15 0 0 1-3.392-.74 9.4 9.4 0 0 1-2.869-1.953q-1.215-1.213-1.755-2.725l2.599-1.102a4.74 4.74 0 0 0 1.148 1.953 6.3 6.3 0 0 0 1.957 1.386q1.13.52 2.312.52a6.4 6.4 0 0 0 2.143-.363 6.4 6.4 0 0 0 1.873-1.008 4.6 4.6 0 0 0 1.316-1.496q.49-.85.49-1.843v-3.134a6.8 6.8 0 0 1-2.278 2.205q-1.4.834-3.274.835a8.7 8.7 0 0 1-3.358-.646 8.7 8.7 0 0 1-2.751-1.78 8.6 8.6 0 0 1-1.856-2.646 7.7 7.7 0 0 1-.675-3.213q0-1.718.675-3.213a8.4 8.4 0 0 1 1.856-2.646 8.6 8.6 0 0 1 2.751-1.796 8.7 8.7 0 0 1 3.358-.645q1.873 0 3.274.835a6.6 6.6 0 0 1 2.278 2.204zm-5.535 13.592q1.636 0 2.835-.787a5.3 5.3 0 0 0 1.873-2.095 6.2 6.2 0 0 0 .658-2.835q0-1.575-.675-2.867a5.17 5.17 0 0 0-1.873-2.078q-1.198-.788-2.818-.788a5.64 5.64 0 0 0-2.903.772 5.8 5.8 0 0 0-2.092 2.079q-.76 1.29-.76 2.882 0 1.59.777 2.898a6.04 6.04 0 0 0 2.092 2.063q1.317.756 2.886.756m11.077 2.158v-15.75h2.835v1.969a6.4 6.4 0 0 1 2.262-1.748 6.7 6.7 0 0 1 2.97-.662q.978 0 1.89.236l-1.148 2.646a4.7 4.7 0 0 0-1.35-.204q-1.266 0-2.329.582a4.5 4.5 0 0 0-1.67 1.544 3.95 3.95 0 0 0-.625 2.173v9.214zm10.68-15.75h2.835v15.75h-2.835zm1.452-2.567q-.675 0-1.131-.41a1.32 1.32 0 0 1-.456-1.023q0-.615.456-1.024t1.114-.41 1.114.41q.455.41.455 1.024t-.455 1.023q-.44.41-1.097.41m17.441-5.308h2.835v23.625h-2.835v-2.677a6.6 6.6 0 0 1-2.312 2.236q-1.452.85-3.409.85a9.1 9.1 0 0 1-3.443-.645 9.3 9.3 0 0 1-2.835-1.78 8.6 8.6 0 0 1-1.906-2.646 7.55 7.55 0 0 1-.692-3.213q0-1.718.692-3.213a8.3 8.3 0 0 1 1.906-2.646 9.1 9.1 0 0 1 2.835-1.796 9.1 9.1 0 0 1 3.443-.645q1.957 0 3.409.85a6.6 6.6 0 0 1 2.312 2.237zm-5.687 21.467q1.67 0 2.885-.756a5.1 5.1 0 0 0 1.89-2.079q.675-1.307.675-2.882 0-1.607-.675-2.898a5.13 5.13 0 0 0-1.907-2.063q-1.215-.772-2.868-.772-1.671 0-3.038.772a6 6 0 0 0-2.16 2.079q-.81 1.29-.81 2.882 0 1.59.827 2.898a6.15 6.15 0 0 0 2.194 2.063 6.07 6.07 0 0 0 2.987.756m16.367 2.457a9.6 9.6 0 0 1-2.667-.472 8 8 0 0 1-2.261-1.182q-.961-.756-1.401-1.732l2.43-.977q.254.535.912 1.008a5.6 5.6 0 0 0 1.518.756 5.5 5.5 0 0 0 1.739.284q.928 0 1.738-.268.81-.267 1.316-.787.523-.536.523-1.276 0-.788-.574-1.229-.556-.456-1.417-.708a41 41 0 0 0-1.721-.504 20 20 0 0 1-3.105-.977q-1.368-.583-2.16-1.465-.777-.898-.777-2.283 0-1.465.861-2.536.878-1.07 2.295-1.654a7.9 7.9 0 0 1 3.037-.583q2.043 0 3.73.82 1.688.818 2.514 2.22l-2.278 1.244a2.8 2.8 0 0 0-.877-.992 4.7 4.7 0 0 0-1.35-.693 5.2 5.2 0 0 0-1.553-.268 5.6 5.6 0 0 0-1.839.237q-.844.267-1.367.819-.506.536-.506 1.338 0 .788.54 1.197.556.41 1.434.662a60 60 0 0 1 1.941.551 23 23 0 0 1 2.868 1.055q1.333.6 2.143 1.497.828.897.81 2.22 0 1.45-.928 2.536-.928 1.071-2.413 1.638-1.468.567-3.155.504"/></g><defs><linearGradient id="b" x1="18" x2="18" y1="0" y2="36" gradientUnits="userSpaceOnUse"><stop stop-color="#3558EA"/><stop offset="1" stop-color="#00F"/></linearGradient><linearGradient id="c" x1="22.789" x2="6.933" y1="5.229" y2="52.475" gradientUnits="userSpaceOnUse"><stop offset=".216" stop-color="#1E1983" stop-opacity="0"/><stop offset=".447" stop-color="#1E1983" stop-opacity=".19"/><stop offset=".62" stop-color="#1E1983"/></linearGradient><clipPath id="a"><path fill="#fff" d="M0 0h172v36H0z"/></clipPath></defs></svg>
